X:1
T:Title
%%score 1 { 2 | 3 }
L:1/8
M:3/4
K:Ab
V:1 treble nm="Bright Piano"
V:2 bass nm="Bright Piano"
V:3 bass 
V:1
 z2 z2[Q:1/4=100] [CE]2 | [EA]4 [EG]2 | [CA]4 [DF]2 | C4 [B,D]2 | [A,C]4 [Ec]2 | [EB]4 [FB]2 | %6
 [GB]4 [FA]2 | [EG]4 [=DF]2 | E4 [B,E]2 | [B,E]4 [EG]2 | [EA]4 [Ec]2 | [Dd]4 [Ec]2 | [EB]4 [EB]2 | %13
 [Ge]4 [EB]2 | [Ec]4 [FA]2 | [FA]4 [EG]2 |[M:2/4] [EA]4 |] %17
V:2
 z2 z2 A,2 | C4 B,2 | A,4 A,2 | A,4 G,2 | A,4 A,2 | B,4 B,2 | E4 C2 | B,4 A,2 | G,4 G,2 | G,4 B,2 | %10
 A,4 A,2 | F,2 G,2 A,2 | G,4 G,2 | B,4 G,2 | A,4 C2 | D4 B,2 |[M:2/4] C4 |] %17
V:3
 z2 z2 A,,2 | A,,4 E,2 | F,4 D,2 | E,4 E,2 | A,,4 z2 | G,4 =D,2 | E,4 A,,2 | B,,4 B,,2 | E,4 E,2 | %9
 E,4 D,2 | C,4 A,,2 | B,,4 C,2 | E,4 E,2 | E,4 E,2 | z2 z2 F,2 | D,4 E,2 |[M:2/4] A,,4 |] %17

